X:53215
F:http://www.vwml.org/record/HAM/5/32/15%%VWML:HAM-5-32-15-0
T:Mary Neal
S:Mrs Marina Russell, Upwey coll. HED Hammond
O:England
A:Dorset
N:Transcribed from HAM-01-683.gif
Z:EFDSS;PJHeadford
%%stretchlast 0
M:3/4
L:1/8
Q:3/4=45
K:C
A A|G> EC2C2&x4C> C|F> G A2A2|G>"_F"F D2D2|(C2D2) E2&x4E>E|
F FD2D E|F> GA2A2|G> FD2D2|D2z2A> B|c> BA2G2&x2AGF2|
G2A2A2|G> FD2D2|(C2D2) E2&x4E> E|F> ED2DE|F> GA2A2|
G> FD2D2|D4||y">('Lazarus' in 3/4 time) Words D VII. p.64."y
W:Transcribed from HAM-02-231.gif Hammond's field notes
W:[left of the title:] Dorian 573 [right of the title:] Mrs Russell of Upwey
W:[after the tune, in the staff:] 'Lazarus' in 3/4 time Words D VII. p.64
W:The MIDI file has two verses, the second using the alternatives in bars 1,4,8 & 11 W:
W:I am a young & undaunted youth
W:My name is John M'Cann
W:I am a native of Edinburgh
W:And willing to trapan
W:For stealing an heiress I was laid & left in gaol
W:And her father said he would hang me
W:for steling Mary Neal
W:
W:All in cold irons I lay bound & my love sent word to me
W:Dont fear my father's anger & I will set you free
W:For the ship she's now awaiting to Derry for to go
W:And I'll bribe the Captain to let no one know
W:
W:Then he gave consent and back she went & stole away her clothes
W:And nary one that was in the house her mind she did not tell
W:And her yellow locks were floating all on the waves so high
W:And I'm to stand trial for stealing Mary Neal.
W:
